X: 1
T: Uncle Dick's Slow
R: reel
M: 4/4
L: 1/8
K: Ddor
|:A,DDE F/F/F ED|CGG^F G/G/G ^FG|ABAG ^FDCD|=FCEC FCEC|
A,DDE F/F/F ED|CGG^F G/G/G ^FG|ABAG ^FDCD|1 =FCEC D4:|2 =FCEC DA, E/^F/G||
[K:Dmix]
|:Add^c dAG^F|E=ccB cAGE|Add^c d/d/d AG|^FDAG ^FD D/D/D|
Add^c dAG^F|E=ccB c/c/c Bc|dB =c/B/A BGA^F|GBAG ^FD D/D/D:|

